!!!COM: Music21
!!!OTL: Jota de San Xián de Freixo
!!!OMV: pezas_jotas_jota-de-san-xian-de-freixo_jota-de-san-xian-de-freixo-partitura.musicxml
**kern
*I"Gaita
*I'Bag
*clefG^2
*k[]
*M3/8
*MM114
=1
!LO:TX:a:t=[quarter-dot]=76
8r
8ggL
8ggJ
=||
16aaLL
16gg
16ee
16gg
16ee
16ggJJ
=
16aaLL
16gg
16ee
16gg
16ee
16ggJJ
=
16aaLL
16gg
16ee
16gg
16ee
16ggJJ
=
16aaLL
16gg
16ee
16gg
16ee
16ggJJ
!!linebreak:original
=
16aaLL
16gg
16ee
16gg
16ee
16ggJJ
=
8ffL
16ddL
16ee
16ff
16ddJJ
=
8ggL
16ddL
16ee
16ff
16ddJJ
=
8ggL
16ddL
16ee
16ff
16ddJJ
=
8ggL
16ddL
16ff
16ee
16ddJJ
=
8.ccL
16ddL
16ee
16ffJJ
!!linebreak:original
=
8aaL
16ddL
16ff
16ee
16ddJJ
=
8.ccL
16ddL
16ee
16ffJJ
=
8ggL
16ddL
16ff
16ee
16ddJJ
=
8.ccL
16ddL
16ee
16ffJJ
=
8ffL
16ddL
16ff
16ee
16ddJJ
=
[4.cc
=
4.cc]
!!linebreak:original
=
8eeL
8ee
8eeJ
=
8eeL
8ff
8ffJ
=
16ggLL
16aa
16gg
16ffJ
8eeJ
=
4.ee
=
8ccL
8ee
8ffJ
=
8ggL
8ee
8aaJ
=
8ggL
16ffL
16eeJ
[8ddJ
=
4.dd]
!!linebreak:original
=||
8eeL
8ee
8eeJ
=
8eeL
8ff
8ffJ
=
8ggL
16ffL
16eeJ
[8ggJ
=
4gg]
8aa
=
8ggL
16ffL
16eeJ
8ddJ
=
8ffL
8ee
8ggJ
=
8ffL
16eeL
16ddJ
[8ccJ
=
4.cc]
!!linebreak:original
=||
8eeL
8ee
8eeJ
=
8eeL
8ff
8ffJ
=
8ggL
16ffL
16eeJ
[8ggJ
=
4gg]
8aa
=
8ggL
16ffL
16eeJ
8ddJ
=
8ffL
8ee
8ggJ
!!linebreak:original
=
8ffL
16eeL
16ddJ
[8ccJ
=
8ccL]
8gg
8ggJ
==
*-
